dist/img/home/finance_report.svg

<svg width="35" height="35" viewBox="0 0 35 35" fill="none" xmlns="http://www.w3.org/2000/svg">
<path d="M10.0332 26.4689V23.4502" stroke="black" stroke-width="1.5" stroke-linecap="round"/>
<path d="M17.5 26.4687V20.4312" stroke="black" stroke-width="1.5" stroke-linecap="round"/>
<path d="M24.9668 26.4688V17.3979" stroke="black" stroke-width="1.5" stroke-linecap="round"/>
<path d="M24.9665 8.53125L24.2957 9.31875C20.577 13.6646 15.5895 16.7417 10.0332 18.1271" stroke="black" stroke-width="1.5" stroke-linecap="round"/>
<path d="M20.6938 8.53125H24.9668V12.7896" stroke="black" stroke-width="1.5" stroke-linecap="round" stroke-linejoin="round"/>
<path d="M13.1248 32.0832H21.8748C29.1665 32.0832 32.0832 29.1665 32.0832 21.8748V13.1248C32.0832 5.83317 29.1665 2.9165 21.8748 2.9165H13.1248C5.83317 2.9165 2.9165 5.83317 2.9165 13.1248V21.8748C2.9165 29.1665 5.83317 32.0832 13.1248 32.0832Z" stroke="black" stroke-width="1.5" stroke-linecap="round" stroke-linejoin="round"/>
</svg>

<svg width="35" height="35" viewBox="0 0 35 35" fill="none" xmlns="http://www.w3.org/2000/svg"><path d="M10.033 26.469V23.45m7.467 3.019V20.43m7.467 6.039v-9.071m-.001-8.867l-.67.788a27.536 27.536 0 01-14.263 8.808" stroke="#000" stroke-width="1.5" stroke-linecap="round"/><path d="M20.694 8.531h4.273v4.259" stroke="#000" stroke-width="1.5" stroke-linecap="round" stroke-linejoin="round"/><path d="M13.125 32.083h8.75c7.291 0 10.208-2.916 10.208-10.208v-8.75c0-7.292-2.916-10.209-10.208-10.209h-8.75c-7.292 0-10.209 2.917-10.209 10.209v8.75c0 7.291 2.917 10.208 10.209 10.208z" stroke="#000" stroke-width="1.5" stroke-linecap="round" stroke-linejoin="round"/></svg>
